packages/icons/src/microscope.svg

<svg width="16" height="16" viewBox="0 0 16 16" fill="none" xmlns="http://www.w3.org/2000/svg">
<path fill-rule="evenodd" clip-rule="evenodd" d="M6 1.5C6 1.22386 6.22386 1 6.5 1C6.77614 1 7 1.22386 7 1.5V2C7.55228 2 8 2.44772 8 3V4.09069C10.5601 4.56094 12.5 6.80393 12.5 9.5C12.5 11.3602 11.5766 13.0046 10.1631 14H12.5C12.7761 14 13 14.2239 13 14.5C13 14.7761 12.7761 15 12.5 15H3.5C3.22386 15 3 14.7761 3 14.5C3 14.2239 3.22386 14 3.5 14H7C8.56021 14 9.93496 13.206 10.7422 12H4.5C4.22386 12 4 11.7761 4 11.5C4 11.2239 4.22386 11 4.5 11H11.2439C11.4098 10.5308 11.5 10.026 11.5 9.5C11.5 7.35841 10.004 5.56624 8 5.11151V8C8 8.55228 7.55228 9 7 9H6C5.44772 9 5 8.55228 5 8V3C5 2.44772 5.44772 2 6 2V1.5Z" fill="currentColor"/>
</svg>

<svg xmlns="http://www.w3.org/2000/svg" width="16" height="16" fill="none"><path fill="currentColor" fill-rule="evenodd" d="M6 1.5a.5.5 0 0 1 1 0V2a1 1 0 0 1 1 1v1.09A5.502 5.502 0 0 1 10.163 14H12.5a.5.5 0 0 1 0 1h-9a.5.5 0 0 1 0-1H7c1.56 0 2.935-.794 3.742-2H4.5a.5.5 0 0 1 0-1h6.744A4.502 4.502 0 0 0 8 5.112V8a1 1 0 0 1-1 1H6a1 1 0 0 1-1-1V3a1 1 0 0 1 1-1z" clip-rule="evenodd"/></svg>
